X: 39715
T: Terry's Flute
R: reel
M: 4/4
K: Gmajor
|:B2BA GBdB|A2FA c2BA|B2BA GBdf|gdBA GFGA|
G2 GF DFAB|cBAG FD D2|B2 BA GBdf|gdBA GF G2:|
bgdf g3 e|dBcA BG D2|GFGB gedB|AGFG A2d2|
gdBd gabg|afdf g4|ecdB AGFG|AGGF G4:|

